symbols/web/calendar_apps_script/materialsymbolsoutlined/calendar_apps_script_wght300grad200fill1_48px.svg

<svg xmlns="http://www.w3.org/2000/svg" height="48" width="48"><path d="M24.7 37.8H9.75q-1.5 0-2.525-1.025T6.2 34.25V11.7q0-1.45 1.025-2.5T9.75 8.15h2.45v-4h2.9v4h13.85v-4h2.9v4h2.45q1.45 0 2.5 1.05t1.05 2.5v13q-.4-.1-.775-.15-.375-.05-.725-.05t-.7.05q-.35.05-.7.15v-7.65H9.1v17.2q0 .3.175.475t.475.175H24.7q-.1.4-.125.75-.025.35-.025.7t.025.725q.025.375.125.725Zm3.6 6q-.6 0-1.025-.425-.425-.425-.425-1.025 0-.6.425-1.025.425-.425 1.025-.425h7.4l-6-4.2q-.5-.35-.65-.925-.15-.575.25-1.075.3-.5.875-.625t1.125.175l6.05 4.25-2.55-6.95q-.2-.6.05-1.125t.85-.725q.55-.25 1.125.025t.775.875l2.45 6.9 2-7.1q.1-.55.6-.85.5-.3 1.1-.2.55.15.875.65.325.5.225 1.05l-3.1 11.6q-.15.5-.55.825-.4.325-.9.325Z"/></svg>

<svg xmlns="http://www.w3.org/2000/svg" height="48" width="48"><path d="M24.7 37.8H9.75Q8.25 37.8 7.225 36.775Q6.2 35.75 6.2 34.25V11.7Q6.2 10.25 7.225 9.2Q8.25 8.15 9.75 8.15H12.2V4.15H15.1V8.15H28.95V4.15H31.85V8.15H34.3Q35.75 8.15 36.8 9.2Q37.85 10.25 37.85 11.7V24.7Q37.45 24.6 37.075 24.55Q36.7 24.5 36.35 24.5Q36 24.5 35.65 24.55Q35.3 24.6 34.95 24.7V17.05H9.1V34.25Q9.1 34.55 9.275 34.725Q9.45 34.9 9.75 34.9H24.7Q24.6 35.3 24.575 35.65Q24.55 36 24.55 36.35Q24.55 36.7 24.575 37.075Q24.6 37.45 24.7 37.8ZM28.3 43.8Q27.7 43.8 27.275 43.375Q26.85 42.95 26.85 42.35Q26.85 41.75 27.275 41.325Q27.7 40.9 28.3 40.9H35.7L29.7 36.7Q29.2 36.35 29.05 35.775Q28.9 35.2 29.3 34.7Q29.6 34.2 30.175 34.075Q30.75 33.95 31.3 34.25L37.35 38.5L34.8 31.55Q34.6 30.95 34.85 30.425Q35.1 29.9 35.7 29.7Q36.25 29.45 36.825 29.725Q37.4 30 37.6 30.6L40.05 37.5L42.05 30.4Q42.15 29.85 42.65 29.55Q43.15 29.25 43.75 29.35Q44.3 29.5 44.625 30Q44.95 30.5 44.85 31.05L41.75 42.65Q41.6 43.15 41.2 43.475Q40.8 43.8 40.3 43.8Z"/></svg>
